icon-svg/tesla-flash.svg

<svg xmlns="http://www.w3.org/2000/svg" fill="#44739e" viewBox="0 0 24 24"><path d="M15.911 5.852h-1.953A1.644 1.644 0 0 0 12.314 7.5v9.438a1.5 1.5 0 0 0 1.5 1.5H15.5a6.5 6.5 0 0 0 6.5-6.5 6.089 6.089 0 0 0-6.089-6.086M2.814 17.931a.692.692 0 1 0 .162 1.374l8.142-.946-.145-1.372zM2.721 6.069l8.158.944.145-1.372L2.882 4.7a.692.692 0 1 0-.161 1.374Zm0 8.848 7.956-.316v-1.38l-8.011.319a.689.689 0 1 0 .055 1.377m-.055-4.48 8.011.319v-1.38L2.721 9.06a.689.689 0 1 0-.055 1.377"/></svg>

<?xml version="1.0" encoding="UTF-8"?>
<svg width="24px" fill="#44739e" height="24px" viewBox="0 0 24 24" version="1.1" xmlns="http://www.w3.org/2000/svg" xmlns:xlink="http://www.w3.org/1999/xlink">
            <path d="M 15.911,5.852 H 13.958 A 1.644,1.644 0 0 0 12.314,7.5 v 9.438 a 1.5,1.5 0 0 0 1.5,1.5 H 15.5 A 6.5,6.5 0 0 0 22,11.938 6.089,6.089 0 0 0 15.911,5.852 Z M 2.814,17.931 a 0.692,0.692 0 1 0 0.162,1.374 l 8.142,-0.946 -0.145,-1.372 z M 2.721,6.069 10.879,7.013 11.024,5.641 2.882,4.7 A 0.692,0.692 0 1 0 2.721,6.074 Z m 0,8.848 7.956,-0.316 v -1.38 L 2.666,13.54 a 0.68904898,0.68904898 0 1 0 0.055,1.377 z m -0.055,-4.48 8.011,0.319 V 9.376 L 2.721,9.06 a 0.68904898,0.68904898 0 1 0 -0.055,1.377 z"/>

</svg>
